**kern
*MM60
*k[]
*M4/4
=1
1r
=2
1r
=3
1r
=4
1r
=5
1r
=6
1r
=7
1r
=8
1r
=9
8r
8A
8G#
8A
4E
[4d
=10
8d]
16c
16B
8c
8A
4.B
8B
=11
8A
8B
8c
8A
8d
8F
8D
8F
=12
8G
8A
8B
8G
8c
8E
8C
8E
=13
4.F
8F
4E
[4A
=14
2A_
2A_
=15
4.A]
8F
4G
[4A
=16
4A]
2G
[4F
=17
4F]
[4E
8E]
8F
4E
=18
4A
4r
2r
=19
1r
=20
2r
8r
16d
16e-
16d
16c
16B-
16A
=21
4G
4r
8r
16c
16d
16c
16B-
16A
16G
=22
4F
4r
2r
=23
1r
=24
1r
=25
1r
=26
1r
=27
1r
=28
1r
=29
1r
=30
1r
=31
1r
=32
1r
=33
1r
=34
1r
=35
1r
=36
1r
=37
1r
=38
1r
=39
1r
=40
1r
=41
1r
=42
1r
=43
1r
=44
1r
=45
1r
=46
1r
=47
1r
=48
1r
=49
1r
=50
8r
8d
8e
8f#
8r
16G
16A
16G
16F
16E-
16D
=51
4C
4r
8r
16F
16G
16F
16E-
16D
16C
=52
8BB-
8r
4r
8r
16E-
16F
16E-
16D
16C
16BB-
=53
4AA
4r
4r
8d
8d
=54
8d
8e-
8d
8d
8B-
8r
4r
=55
1r
=56
1r
=57
1r
=58
1r
=59
1r
=60
1r
=61
1r
=62
4A
4r
2r
=63
1D
==
*-
